X: 2
T: The Kitchen Girl
R: reel
M: 4/4
L: 1/8
K: Ador
a4g4 | efed c2 cd | e2 f2 gaba | g2 e2 e4|e2 a2 g2 ag | efed cdef | g2 d2 efed | c2A2A4 :|ABcA BA G2 | ABAG E2 EG | ABcd e>=f e2 |ABcA BA G2 | ABAG E2 AB cBAc BA G2 | A4 A4 :|


Tune 603	Setting 603

